flaticon/dialogue/chat-6.svg

<svg xmlns="http://www.w3.org/2000/svg" width="32" height="32" viewBox="0 0 24 24">
    <path d="M 20.378906 7.074219 C 18.863281 4.308594 15.976562 2.367188 12.847656 2.003906 C 12.625 1.976562 12.429688 2.136719 12.402344 2.355469 C 12.378906 2.574219 12.535156 2.773438 12.753906 2.796875 C 15.628906 3.132812 18.285156 4.917969 19.679688 7.460938 C 19.753906 7.59375 19.886719 7.667969 20.03125 7.667969 C 20.09375 7.667969 20.160156 7.652344 20.222656 7.617188 C 20.414062 7.511719 20.488281 7.269531 20.378906 7.074219 Z M 20.378906 7.074219"/>
    <path d="M 12.199219 0 C 5.691406 0 0.398438 5.292969 0.398438 11.800781 C 0.398438 13.859375 0.9375 15.882812 1.957031 17.660156 L 0.0195312 23.472656 C -0.0273438 23.613281 0.0078125 23.765625 0.109375 23.875 C 0.183594 23.957031 0.289062 24 0.398438 24 C 0.433594 24 0.46875 23.996094 0.503906 23.988281 L 6.847656 22.316406 C 8.496094 23.15625 10.34375 23.601562 12.199219 23.601562 C 18.707031 23.601562 24 18.308594 24 11.800781 C 24 5.292969 18.707031 0 12.199219 0 Z M 12.199219 22.800781 C 10.8125 22.800781 9.433594 22.53125 8.148438 22.023438 L 10.085938 21.589844 C 10.300781 21.542969 10.4375 21.328125 10.390625 21.113281 C 10.34375 20.898438 10.125 20.761719 9.914062 20.808594 L 6.808594 21.5 C 6.808594 21.5 6.804688 21.503906 6.804688 21.503906 C 6.800781 21.503906 6.796875 21.503906 6.792969 21.503906 L 1.011719 23.023438 L 2.773438 17.742188 C 2.8125 17.632812 2.796875 17.511719 2.738281 17.410156 C 1.730469 15.71875 1.199219 13.777344 1.199219 11.800781 C 1.199219 5.734375 6.136719 0.800781 12.199219 0.800781 C 18.265625 0.800781 23.199219 5.734375 23.199219 11.800781 C 23.199219 17.867188 18.265625 22.800781 12.199219 22.800781 Z M 12.199219 22.800781"/>
</svg>

<svg xmlns="http://www.w3.org/2000/svg" width="32" height="32" viewBox="0 0 24 24">
    <path d="M20.379 7.074c-1.516-2.765-4.402-4.707-7.531-5.07a.4.4 0 0 0-.094.793c2.875.336 5.531 2.121 6.926 4.664a.398.398 0 0 0 .543.156.398.398 0 0 0 .156-.543zm0 0"/>
    <path d="M12.2 0C5.69 0 .397 5.293.397 11.8c0 2.06.54 4.083 1.559 5.86L.02 23.473a.402.402 0 0 0 .484.515l6.344-1.672a11.835 11.835 0 0 0 5.351 1.286C18.707 23.602 24 18.309 24 11.8S18.707 0 12.2 0zm0 22.8c-1.387 0-2.766-.269-4.052-.777l1.938-.433a.401.401 0 0 0 .305-.477.403.403 0 0 0-.477-.304L6.81 21.5l-.004.004h-.012l-5.781 1.52 1.761-5.282a.398.398 0 0 0-.035-.332A10.964 10.964 0 0 1 1.2 11.8c0-6.066 4.938-11 11-11 6.067 0 11 4.934 11 11 0 6.067-4.933 11-11 11zm0 0"/>
</svg>
